!!!COM: Haydn, Franz Joseph
!!!OTL: String Quartet in B-flat Major
!!!OPS: Opus 50
!!!ONM:ONM: No. 1
!!!OMD: Allegro
!!!OMV: 1
!!!SCT: H III:44
!!!SCA: Thematisch-bibliographisches Werkevererzeichnis (A. van Hoboken)
!!!YOR: Richault Edition, volume 6
!!!ENC: Frances Bennion
!!!CDT: 1732/3/31/-1809/5/31/
!!!CNT: Oesterreich
!!!YEC: Copyright (c) 1994, 2000 Center for Computer Assisted Research in the Humanities
!!!YEM: Rights to all derivative editions reserved.
!!!YEM: Refer to licensing agreement for further details.
!!!YEN: United States of America
**kern	**kern	**kern	**kern
*k[b-e-]	*k[b-e-]	*k[b-e-]	*k[b-e-]
*B-:	*B-:	*B-:	*B-:
*clefF4	*clefC3	*clefF	*clefF
*M4/4	*M4/4	*M4/4	*M4/4
4BB-	1r	1r	1r
4BB-	.	.	.
4BB-	.	.	.
4BB-	.	.	.
=2	=2	=2	=2
4BB-	1r	1r	1r
4BB-	.	.	.
4BB-	.	.	.
4BB-	.	.	.
=3	=3	=3	=3
4BB-	[3..c	1a	[3..ee-
4BB-	.	.	.
4BB-	.	.	.
.	24c]	.	24ee-]
.	16d	.	16ff
.	16e-	.	16gg
4BB-	8d	.	8ff
.	8c	.	8ee-
=4	=4	=4	=4
4BB-	4B-	4b-	4dd
4BB-	2.r	2.r	2.r
4BB-	.	.	.
4BB-	.	.	.
=5	=5	=5	=5
4BB-	1a	[3..ee-	[3..gg
4BB-	.	.	.
4BB-	.	.	.
.	.	24ee-]	24gg]
.	.	16ff	16aa
.	.	16gg	16bb-
4BB-	.	8ff	8aa
.	.	8ee-	8gg
=6	=6	=6	=6
4BB-	4b-	4dd	4ff
2.r	2.r	4r	2r
.	.	4r	.
.	.	12d	12bb-
.	.	12e-	12ccc
.	.	12f	12ddd
=7	=7	=7	=7
2.r	1r	12e-	12ccc
.	.	12d	12bb-
.	.	12c	12aa
.	.	4d	4bb-
.	.	2r	4r
12B-	.	.	12ddd
12c	.	.	12eee-
12d	.	.	12fff
=8	=8	=8	=8
12c	1r	1r	12eee-
12B-	.	.	12ddd
12A	.	.	12ccc
4B-	.	.	4ddd
2r	.	.	4r
.	.	.	12ddd
.	.	.	12eee-
.	.	.	12fff
=9	=9	=9	=9
2.F	2.c	1a	12eee-
.	.	.	12ddd
.	.	.	12ccc
.	.	.	12bb-
.	.	.	12aa
.	.	.	12gg
.	.	.	4ff
4F#	4a	.	8ee-
.	.	.	16dd
.	.	.	16ee-
=10	=10	=10	=10
2.G	2a	2cc	2ee-
.	4b-	4b-	4dd
4r	4r	4r	12b
.	.	.	12cc
.	.	.	12ee-
=11	=11	=11	=11
4E-	4g	4c	12gg
.	.	.	12ff
.	.	.	12ee-
4r	4r	4r	12dd
.	.	.	12cc
.	.	.	12b-
4F	4e-	12c	12a
.	.	12d	12g
.	.	12e-	12f
4r	4r	12f	12e-
.	.	12g	12d
.	.	12a	12c
=12	=12	=12	=12
4BB-	4d	4b-	4B-
4BB-	2.r	2.r	2.r
4BB-	.	.	.
4BB-	.	.	.
=13	=13	=13	=13
4BB-	1r	1r	1r
4BB-	.	.	.
4BB-	.	.	.
4BB-	.	.	.
=14	=14	=14	=14
4BB-	2g-	2cc	[3..ee-
4BB-	.	.	.
4BB-	2f	2a	.
.	.	.	24ee-]
.	.	.	16ff
.	.	.	16gg
4BB-	.	.	8ff
.	.	.	8ee-
=15	=15	=15	=15
4BB-	4f	4b-	4dd
4BB-	2.r	2.r	2.r
4BB-	.	.	.
4BB-	.	.	.
=16	=16	=16	=16
4BB-	[1B-	4dd	4ff#
4BB-	.	4.ee-	4.gg
4BB-	.	.	.
.	.	16ff	16aa
.	.	16gg	16bb-
4BB-	.	8ff	8aa
.	.	8ee-	8gg
=17	=17	=17	=17
4BB-	4B-]	4dd	4ff
2.r	2.r	4b-	2.r
.	.	4b-	.
.	.	4b-	.
=18	=18	=18	=18
[3..d	[3..f	4b-	1r
.	.	4b-	.
.	.	4b-	.
24d]	24f]	.	.
16e-	16g	.	.
16f	16a-	.	.
8e-	8g	4b-	.
8d	8f	.	.
=19	=19	=19	=19
4e-	4g	4b-	1r
2.r	2.r	4b-	.
.	.	4b-	.
.	.	4b-	.
=20	=20	=20	=20
1F	1e-	4b-	[3..cc
.	.	4b-	.
.	.	4a	.
.	.	.	24cc]
.	.	.	16dd
.	.	.	16ee-
.	.	4a	8dd
.	.	.	8cc
=21	=21	=21	=21
4BB-	4d	4b-	4b-
2.r	2.r	2.r	4bb-
.	.	.	4bb-
.	.	.	4bb-
=22	=22	=22	=22
[3..d	[3..f	1r	4bb-
.	.	.	4bb-
.	.	.	4bb-
24d]	24f]	.	.
16e-	16g	.	.
16f	16a-	.	.
8e-	8g	.	4bb-
8d	8f	.	.
=23	=23	=23	=23
4e-	4g	1r	4bb-
2.r	2.r	.	4bb-
.	.	.	4bb-
.	.	.	4bb-
=24	=24	=24	=24
1F	1e-	[3..cc	4bb-
.	.	.	4bb-
.	.	.	4aa
.	.	24cc]	.
.	.	16dd	.
.	.	16ee-	.
.	.	8dd	4aa
.	.	8cc	.
=25	=25	=25	=25
4BB-	4d	4b-	4bb-
4r	4r	4r	4r
2F	2e-	2a	8cc
.	.	.	16dd
.	.	.	16ee-
.	.	.	8dd
.	.	.	8cc
=26	=26	=26	=26
4BB-	4d	4b-	4b-
4r	4r	4r	4r
4FF	8cc	4f 4ee-	4aa 4cc 4f
.	16dd	.	.
.	16ee-	.	.
4r	8dd	4r	4r
.	8cc	.	.
=27	=27	=27	=27
4BB-	4b-	4f 4dd	4bb- 4b- 4d
2.r	2.r	2.r	2.r
=28	=28	=28	=28
1r	1f#	2b-	2.dd
.	.	2a	.
.	.	.	8ee-
.	.	.	8cc
=29	=29	=29	=29
1r	2.f	2.a-	2cc
.	.	.	4b
.	4e	4g	4cc
=30	=30	=30	=30
1r	2d	2f	4r
.	.	.	2b-
.	2c	2e	.
.	.	.	4a
=31	=31	=31	=31
1r	2.B-	2d	12r
.	.	.	12g
.	.	.	12a
.	.	.	12b-
.	.	.	12a
.	.	.	12g
.	.	2c	8r
.	.	.	8e
.	4A	.	8f
.	.	.	8a
=32	=32	=32	=32
4r	4G	4r	8cc
.	.	.	8b
4E	2c	2g	2b-
4F	.	.	.
4BB	4B	4f	8a
.	.	.	16g
.	.	.	16a
=33	=33	=33	=33
4C	4c	4e	4g
2.r	2.r	4cc	2.r
.	.	4cc	.
.	.	4cc	.
=34	=34	=34	=34
1r	1r	4cc	1r
.	.	4cc	.
.	.	4cc	.
.	.	4cc	.
=35	=35	=35	=35
12B-	2r	4cc	1r
12c	.	.	.
12d	.	.	.
12c	.	4cc	.
12B-	.	.	.
12A	.	.	.
12G	12b-	4cc	.
12A	12cc	.	.
12B-	12dd	.	.
12A	12cc	4cc	.
12G	12b-	.	.
12F	12a	.	.
=36	=36	=36	=36
12E	12g	4cc	1r
12F	12a	.	.
12G	12b-	.	.
12F	12a	4cc	.
12E	12g	.	.
12D	12f	.	.
12C	12e	4cc	.
12D	12f	.	.
12C	12e	.	.
12BB-	12g	4cc	.
12AA	12f	.	.
12GG	12e	.	.
=37	=37	=37	=37
4FF	4f	4cc	12aa
.	.	.	12bb-
.	.	.	12ccc
2.r	4f	4cc	12bb-
.	.	.	12aa
.	.	.	12gg
.	4a	4cc	12ff
.	.	.	12aa
.	.	.	12ccc
.	4f	4cc	12fff
.	.	.	12ccc
.	.	.	12aa
=38	=38	=38	=38
1r	4cc	12b-	4bb-
.	.	12cc	.
.	.	12dd	.
.	4cc	12cc	4r
.	.	12b-	.
.	.	12a	.
.	4cc	12g	12b-
.	.	12a	12cc
.	.	12b-	12dd
.	4cc	12a	12cc
.	.	12g	12b-
.	.	12f	12a
=39	=39	=39	=39
1r	4cc	12e	12g
.	.	12f	12a
.	.	12g	12b-
.	4cc	12f	12a
.	.	12e	12g
.	.	12d	12f
.	4cc	12c	12e
.	.	12d	12f
.	.	12e	12g
.	4cc	12d	12f
.	.	12c	12e
.	.	12B-	12d
=40	=40	=40	=40
12F	12a	4A	4c
12G	12b-	.	.
12A	12cc	.	.
12G	12b-	2.r	2.r
12F	12a	.	.
12E	12g	.	.
12D	12f	.	.
12E	12g	.	.
12F	12a	.	.
12E	12g	.	.
12D	12f	.	.
12C	12e	.	.
=41	=41	=41	=41
4BB-	4d	4r	12dd
.	.	.	12ee
.	.	.	12ff
2.r	2.r	4B-	12ee
.	.	.	12dd
.	.	.	12cc
.	.	4d	12b-
.	.	.	12cc
.	.	.	12dd
.	.	4f#	12cc
.	.	.	12b-
.	.	.	12a
=42	=42	=42	=42
12G	12b-	4g	4g
12A	12cc	.	.
12B-	12dd	.	.
12A	12cc	2.r	2.r
12G	12b-	.	.
12F	12a	.	.
12E	12g	.	.
12F	12a	.	.
12G	12b-	.	.
12F	12a	.	.
12E	12g	.	.
12D	12f	.	.
=43	=43	=43	=43
4C	4e	12gg	12bb-
.	.	12aa	12ccc
.	.	12bb-	12ddd
2.r	2.r	12aa	12ccc
.	.	12gg	12bb-
.	.	12ff	12aa
.	.	12ee	12gg
.	.	12ff	12aa
.	.	12gg	12bb-
.	.	12ff	12aa
.	.	12ee	12gg
.	.	12dd	12ff
=44	=44	=44	=44
1C	2G	12cc	12ee
.	.	12dd	12ff
.	.	12ee	12gg
.	.	12dd	12ff
.	.	12cc	12ee
.	.	12b-	12dd
.	4A	12a	12cc
.	.	12b-	12dd
.	.	12a	12cc
.	4B-	12g	12b-
.	.	12f	12a
.	.	12e	12g
=45	=45	=45	=45
4F	4A	2f	12a
.	.	.	12ccc
.	.	.	12ccc
4A	4c	.	12ccc
.	.	.	12aa
.	.	.	12ff
4B-	4c	8.g	12ee
.	.	.	12cc
.	.	.	12ccc
.	.	16e	.
4A	4c	4f	12ccc
.	.	.	12aa
.	.	.	12ff
=46	=46	=46	=46
4B-	4c	8.g	12ee
.	.	.	12cc
.	.	.	12ccc
.	.	16e	.
4A	4c	4f	12ccc
.	.	.	12aa
.	.	.	12ff
4B-	4c	8.g	12ee
.	.	.	12cc
.	.	.	12ccc
.	.	16e	.
4A	4c	12f	12ccc
.	.	12a	12aa
.	.	12cc	12ff
=47	=47	=47	=47
4B-	4F	4dd	4dd
4r	4r	4bb-	4ddd
4r	4r	4r	4r
4B	4B	[4ff	4gg
=48	=48	=48	=48
4c	4c	4ff]	4aa
2c#	2g	2ee	2bb-
4d	4f	4ff	4aa
=49	=49	=49	=49
2B-	4r	4.dd	4.gg
.	4b-	.	.
.	.	16cc	16aa
.	.	16b-	16bb-
2c	4cc	4a	4ff
.	4b-	4g	4ee
=50	=50	=50	=50
12f	12a	12a	4ff
12a	12cc	12ff	.
12a	12cc	12ff	.
12a	12cc	12ff	2.r
12g	12b-	12ee	.
12f	12a	12dd	.
12e	12g	12cc	.
12f	12a	12dd	.
12f	12a	12dd	.
12f	12a	12dd	.
12e	12g	12cc	.
12d	12f	12b-	.
=51	=51	=51	=51
12c	12e	12a	1r
12d	12f	12b-	.
12d	12f	12b-	.
12d	12f	12b-	.
12c	12e	12a	.
12B-	12d	12g	.
12A	4c	12f	.
12G	.	12e	.
12A	.	12f	.
12B-	4c	12g	.
12A	.	12f	.
12G	.	12e	.
=52	=52	=52	=52
12A	4c	12f	2r
12G	.	12e	.
12A	.	12f	.
12B-	4c	12g	.
12A	.	12f	.
12G	.	12e	.
12A	4c	4f	12ff
12G	.	.	12ee
12A	.	.	12ff
12B-	4c	12e	12gg
12A	.	12f	12ff
12G	.	12g	12ee
=53	=53	=53	=53
12A	4c	4f	12ff
12G	.	.	12ee
12A	.	.	12ff
12B-	4c	12e	12gg
12A	.	12f	12ff
12G	.	12g	12ee
4A	4c	4f	12ff
.	.	.	12gg
.	.	.	12ff
4A	4c	4f	12ee-
.	.	.	12dd
.	.	.	12ee-
=54	=54	=54	=54
4B-	4d	4f	12dd
.	.	.	12ee-
.	.	.	12ee
2.r	2.r	2.r	12ff
.	.	.	12ff#
.	.	.	12gg
.	.	.	12aa
.	.	.	12bb-
.	.	.	12gg
.	.	.	12aa
.	.	.	12bb-
.	.	.	12gg
=55	=55	=55	=55
4c	2.c	4a	2ff
4c	.	2ff	.
4C	.	.	2gg
4C	4B-	4ee	.
=56	=56	=56	=56
4F	2A	4ff	[1ff
4F	.	4r	.
4F	2d	12b-	.
.	.	12a	.
.	.	12b-	.
4F	.	12dd	.
.	.	12cc	.
.	.	12b-	.
=57	=57	=57	=57
4F	4c	4a	1ff_
4F	4r	4r	.
4F	12B-	12g	.
.	12A	12f#	.
.	12B-	12g	.
4F	12d	12b-	.
.	12c	12a	.
.	12B-	12g	.
=58	=58	=58	=58
4F	4A	4.a	4.ff]
4F	4f	.	.
.	.	16b-	16gg
.	.	16cc	16aa
4F	4d	4dd	12bb-
.	.	.	12aa
.	.	.	12bb-
4F	4B-	4ee	12ddd
.	.	.	12ccc
.	.	.	12bb-
=59	=59	=59	=59
4F	4c	4ff	12aa
.	.	.	12ccc
.	.	.	12bb-
4r	4r	4r	12aa
.	.	.	12gg
.	.	.	12ff
4r	4r	4r	12ee
.	.	.	12dd
.	.	.	12cc
4C	4g	4b- 4ee	12b-
.	.	.	12a
.	.	.	12g
=60	=60	=60	=60
4FF	4f	4ff 4a	4f
4F	4F	4f 4A	4a 4ff
2r	2r	2r	2r
=61	=61	=61	=61
4DD	1r	1r	1r
4DD	.	.	.
4DD	.	.	.
4DD	.	.	.
=62	=62	=62	=62
4DD	1r	1r	1r
4DD	.	.	.
4DD	.	.	.
4DD	.	.	.
=63	=63	=63	=63
4DD	[3..c	[3..a	1ee- 1f#
4DD	.	.	.
4DD	.	.	.
.	24c]	24a]	.
.	16d	16b-	.
.	16e-	16cc	.
4DD	8d	8b-	.
.	8c	8a	.
=64	=64	=64	=64
4DD	4B-	4b-	4dd 4g
4DD	2.r	2.r	2.r
4DD	.	.	.
4DD	.	.	.
=65	=65	=65	=65
4DD	1B-	[3..g	1dd- 1e
4DD	.	.	.
4DD	.	.	.
.	.	24g]	.
.	.	16a	.
.	.	16b-	.
4DD	.	8a	.
.	.	8g	.
=66	=66	=66	=66
4DD	4A	1f#	2.d 2.dd
2.r	4d	.	.
.	4d	.	.
.	4d	.	4cc
=67	=67	=67	=67
[1GG	[3..d	[3..f	1b
.	24d]	24f]	.
.	16e-	16g	.
.	16f	16a-	.
.	8e-	8g	.
.	8d	8f	.
=68	=68	=68	=68
2GG]	1c	1e-	2cc
2GG-	.	.	2b-
=69	=69	=69	=69
[1FF	[3..c	[3..e-	1a
.	24c]	24e-]	.
.	16d-	16f	.
.	16e-	16g	.
.	8d-	8f	.
.	8c	8e-	.
=70	=70	=70	=70
2FF]	[1B-	[1d-	2b-
2FF-	.	.	2a-
=71	=71	=71	=71
1EE-	3..B-_	3..d-_	1g
.	24B-]	24d-]	.
.	16c	16e-	.
.	16d-	16f	.
.	8c	8e-	.
.	8B-	8d-	.
=72	=72	=72	=72
4AA-	4A-	4c	[3..a-
2.r	4e-	4cc	.
.	4e-	4cc	.
.	.	.	24a-]
.	.	.	16b-
.	.	.	16cc
.	4e-	4cc	8b-
.	.	.	8a-
=73	=73	=73	=73
[3..D-	4e-	4b-	4g
.	4e-	4b-	2.r
.	4e-	4b-	.
24D-]	.	.	.
16E-	.	.	.
16F	.	.	.
8E-	4e-	4b-	.
8D-	.	.	.
=74	=74	=74	=74
4C	4e-	4cc	[3..aa-
2.r	4e-	4cc	.
.	4e-	4cc	.
.	.	.	24aa-]
.	.	.	16bb-
.	.	.	16ccc
.	4e-	4cc	8bb-
.	.	.	8aa-
=75	=75	=75	=75
[3..DD-	4e-	4b-	4gg
.	4e-	4b-	2.r
.	4e-	4b-	.
24DD-]	.	.	.
16EE-	.	.	.
16FF	.	.	.
8EE-	4e-	4b-	.
8DD-	.	.	.
=76	=76	=76	=76
4CC	4e-	4cc	[3..a-
2.r	4e-	4cc	.
.	4e-	4cc	.
.	.	.	24a-]
.	.	.	16b-
.	.	.	16cc
.	4e-	4cc	8b-
.	.	.	8a-
=77	=77	=77	=77
[3..B-	4e	4dd-	[3..g
.	4e	4dd-	.
.	4e	4dd-	.
24B-]	.	.	24g]
16c	.	.	16a-
16d-	.	.	16b-
8c	4e	4dd-	8a-
8B-	.	.	8g
=78	=78	=78	=78
4A-	4f	4cc	4f
2.r	4A-	4f	2.r
.	4A-	4f	.
.	4A-	4f	.
=79	=79	=79	=79
4r	4A-	4f	1r
4C	4A-	4f	.
4AA-	4A-	4f	.
4FF	4A-	4f	.
=80	=80	=80	=80
4DD-	4A-	4f	[3..dd-
2.r	4A-	4f	.
.	4A-	4f	.
.	.	.	24dd-]
.	.	.	16ee-
.	.	.	16ff
.	4A-	4f	8ee-
.	.	.	8dd-
=81	=81	=81	=81
[3..GG-	4A-	4e-	4cc
.	4A-	4e-	2.r
.	4A-	4e-	.
24GG-]	.	.	.
16AA-	.	.	.
16BB-	.	.	.
8AA-	4A-	4e-	.
8GG-	.	.	.
=82	=82	=82	=82
4FF	4A-	4f	[3..ddd-
2.r	4A-	4f	.
.	4A-	4f	.
.	.	.	24ddd-]
.	.	.	16eee-
.	.	.	16fff
.	4A-	4f	8eee-
.	.	.	8ddd-
=83	=83	=83	=83
[3..G-	4A-	4e-	4ccc
.	4A-	4e-	2.r
.	4A-	4e-	.
24G-]	.	.	.
16A-	.	.	.
16B-	.	.	.
8A-	4A-	4e-	.
8G-	.	.	.
=84	=84	=84	=84
4F	4A-	4f	[3..dd-
2.r	4f	4a-	.
.	4f	4a-	.
.	.	.	24dd-]
.	.	.	16ee-
.	.	.	16ff
.	4f	4a-	8ee-
.	.	.	8dd-
=85	=85	=85	=85
1r	4e-	4a-	[3..cc
.	4e-	4a-	.
.	4e-	4a-	.
.	.	.	24cc]
.	.	.	16dd-
.	.	.	16ee-
.	4e-	4a-	8dd-
.	.	.	8cc
=86	=86	=86	=86
1r	4d	4a-	3..b-
.	4d	4a-	.
.	4d	4a-	.
.	.	.	12a-
.	.	.	12b-
.	4d	4a-	12cc
.	.	.	12b-
.	.	.	12a-
=87	=87	=87	=87
4E-	4e-	4g	12g
.	.	.	12bb-
.	.	.	12aa-
4r	4r	4r	12gg
.	.	.	12ff
.	.	.	12ee-
4r	4r	4r	12dd
.	.	.	12cc
.	.	.	12b-
4BB-	4d	12f	12a-
.	.	12e-	12g
.	.	12d	12f
=88	=88	=88	=88
4E-	12e-	12e-	4e-
.	12g	12b-	.
.	12f	12a-	.
4r	12e-	12g	2.r
.	12d	12f	.
.	12c	12e-	.
4r	12B-	12d	.
.	12A-	12c	.
.	12G	12B-	.
4BB-	12F	12A-	.
.	12E-	12G	.
.	12D	12A-	.
=89	=89	=89	=89
4E-	12E-	4G	12e- 12G
.	12E-	.	12bb-
.	12F	.	12aa-
4r	12G	4r	12gg
.	12A-	.	12ff
.	12B-	.	12ee-
4r	12c	4r	12dd
.	12d	.	12cc
.	12e-	.	12b-
4BB-	12f	12d	12a-
.	12e-	12e-	12g
.	12d	12f	12f
=90	=90	=90	=90
12EE-	4e-	4g	4e-
12GG	.	.	.
12AA-	.	.	.
12BB-	4g	4ee-	2.r
12C	.	.	.
12D	.	.	.
12E-	4g	4ee-	.
12F	.	.	.
12G	.	.	.
12F	4g	4ee-	.
12E-	.	.	.
12D	.	.	.
=91	=91	=91	=91
12C	4g	4ee-	4r
12E-	.	.	.
12F	.	.	.
12G	2.r	4ee-	4gg
12A	.	.	.
12B	.	.	.
12c	.	4ee-	4gg
12d	.	.	.
12e-	.	.	.
12d	.	4ee-	4gg
12c	.	.	.
12B-	.	.	.
=92	=92	=92	=92
12A	1r	4ee-	4ff#
12B-	.	.	.
12c	.	.	.
12B-	.	4dd	8gg
12A	.	.	.
.	.	.	16ff#
12G	.	.	.
.	.	.	16gg
12F#	.	4cc	4aa
12G	.	.	.
12A	.	.	.
12D	.	4a	4cc
12E	.	.	.
12F#	.	.	.
=93	=93	=93	=93
12GG	4r	4b-	4b-
12BB-	.	.	.
12C	.	.	.
12D	4b-	2.r	4gg
12E	.	.	.
12F#	.	.	.
12G	4b-	.	4gg
12d	.	.	.
12c	.	.	.
12B-	4b-	.	4gg
12A	.	.	.
12G	.	.	.
=94	=94	=94	=94
1e-	1cc	12r	[1gg
.	.	12b	.
.	.	12cc	.
.	.	12ee-	.
.	.	12b	.
.	.	12cc	.
.	.	12ee-	.
.	.	12b	.
.	.	12cc	.
.	.	12ee-	.
.	.	12b	.
.	.	12cc	.
=95	=95	=95	=95
1E-	1cc#	1g	12gg]
.	.	.	12ff#
.	.	.	12gg
.	.	.	12bb-
.	.	.	12ff#
.	.	.	12gg
.	.	.	12bb-
.	.	.	12ff#
.	.	.	12gg
.	.	.	12bb-
.	.	.	12aa
.	.	.	12gg
=96	=96	=96	=96
4D	4dd	4f#	12ff#
.	.	.	12dd
.	.	.	12ddd
2.r	12g	4b-	12ddd
.	12b-	.	12bb-
.	12dd	.	12gg
.	4d	4a	12ff#
.	.	.	12dd
.	.	.	12ddd
.	12g	4b-	12ddd
.	12b-	.	12bb-
.	12dd	.	12gg
=97	=97	=97	=97
4D	4d	4a	12ff#
.	.	.	12dd
.	.	.	12ddd
4r	12g	4b-	12ddd
.	12b-	.	12bb-
.	12dd	.	12gg
4r	4d	4a	12ff#
.	.	.	12dd
.	.	.	12ddd
[4B-	4B-	[4g	12ddd
.	.	.	12bb-
.	.	.	12gg
=98	=98	=98	=98
4B-]	2c	4g]	12ee-
.	.	.	12cc
.	.	.	12ccc
2A	.	2f	12ccc
.	.	.	12aa
.	.	.	12ff
.	2B-	.	12dd
.	.	.	12b-
.	.	.	12bb-
[4G	.	[4e-	12bb-
.	.	.	12gg
.	.	.	12ee-
=99	=99	=99	=99
4G]	2A	4e-]	12cc
.	.	.	12a
.	.	.	12aa
4F#	.	2d	12aa
.	.	.	12ff#
.	.	.	12cc
4G	4B-	.	12b-
.	.	.	12g
.	.	.	12dd
4BB-	4d	4g	12dd
.	.	.	12b-
.	.	.	12g
=100	=100	=100	=100
2C	2e-	2a-	12e-
.	.	.	12a-
.	.	.	12cc
.	.	.	12ee-
.	.	.	12cc
.	.	.	12a-
2D	2f	2b	12f
.	.	.	12b
.	.	.	12dd
.	.	.	12ff
.	.	.	12dd
.	.	.	12b
=101	=101	=101	=101
2E-	2g	2cc	12g
.	.	.	12cc
.	.	.	12ee-
.	.	.	12gg
.	.	.	12ee-
.	.	.	12cc
2EE-	4b-	2cc#	12g
.	.	.	12gg
.	.	.	12aa
.	4g	.	12bb-
.	.	.	12aa
.	.	.	12gg
=102	=102	=102	=102
4DD	4d	4dd	12ddd
.	.	.	12bb-
.	.	.	12gg
4D	4d	12B-	12dd
.	.	12d	12b-
.	.	12g	12g
4D	4d	2f#	2a
4D	4d	.	.
=103	=103	=103	=103
4GG	4G	4g	4g
2.r	4g	2.r	2.r
.	4g	.	.
.	4g	.	.
=104	=104	=104	=104
1r	4g	1r	1r
.	4g	.	.
.	4g	.	.
.	4g	.	.
=105	=105	=105	=105
2c	4g	[3..a-	1r
.	4g	.	.
2d	4f	.	.
.	.	24a-]	.
.	.	16b-	.
.	.	16cc	.
.	4f	8b-	.
.	.	8a-	.
=106	=106	=106	=106
[3..B	4f	4g	[3..dd
.	4f	4g	.
.	4f	4g	.
24B]	.	.	24dd]
16c	.	.	16ee-
16d	.	.	16ff
8c	4f	4g	8ee-
8B	.	.	8dd
=107	=107	=107	=107
2c	4e-	4g	[3..ee-
.	4e-	4g	.
2B-	4c	4g-	.
.	.	.	24ee-]
.	.	.	8dd
.	4c	4g-	8ee-
.	.	.	8dd
=108	=108	=108	=108
[3..A	4c	4f	[3..cc
.	4c	4f	.
.	4c	4f	.
24A]	.	.	24cc]
16B-	.	.	16dd
16c	.	.	16ee-
8B-	4c	4f	8dd
8A	.	.	8cc
=109	=109	=109	=109
4B-	4B-	4f	4dd
4BB-	2.r	2.r	2.r
4BB-	.	.	.
4BB-	.	.	.
=110	=110	=110	=110
4BB-	1b-	[3..ee-	[3..gg
4BB-	.	.	.
4BB-	.	.	.
.	.	24ee-]	24gg]
.	.	16ff	16aa
.	.	16gg	16bb-
4BB-	.	8ff	8aa
.	.	8ee-	8gg
=111	=111	=111	=111
4BB-	4B-	4dd	4ff
2.r	2.r	4r	2r
.	.	4r	.
.	.	12d	12bb-
.	.	12e-	12ccc
.	.	12f	12ddd
=112	=112	=112	=112
2.r	1r	12e-	12ccc
.	.	12d	12bb-
.	.	12c	12aa
.	.	4d	4bb-
.	.	2r	4r
12B-	.	.	12ddd
12c	.	.	12eee-
12d	.	.	12fff
=113	=113	=113	=113
12c	1r	1r	12eee-
12B-	.	.	12ddd
12A	.	.	12ccc
4B-	.	.	4ddd
2r	.	.	4r
.	.	.	12ddd
.	.	.	12eee-
.	.	.	12fff
=114	=114	=114	=114
2.F	2.c	1a	12eee-
.	.	.	12ddd
.	.	.	12ccc
.	.	.	12bb-
.	.	.	12aa
.	.	.	12gg
.	.	.	4ff
4F#	4a	.	8ee-
.	.	.	16dd
.	.	.	16ee-
=115	=115	=115	=115
2.G	2a	2cc	2ee-
.	4b-	4b-	4dd
4r	4r	4r	12b
.	.	.	12cc
.	.	.	12ee-
=116	=116	=116	=116
2.E-	[1c	1g	12gg
.	.	.	12ff
.	.	.	12ee-
.	.	.	12dd
.	.	.	12cc
.	.	.	12b
.	.	.	12cc
.	.	.	12dd
.	.	.	12cc
4E	.	.	12b-
.	.	.	12a
.	.	.	12g
=117	=117	=117	=117
2F	4c]	4c	12a
.	.	.	12b-
.	.	.	12cc
.	2.r	2.r	12b-
.	.	.	12a
.	.	.	12g
2r	.	.	12f
.	.	.	12g
.	.	.	12f
.	.	.	12e-
.	.	.	12d
.	.	.	12c
=118	=118	=118	=118
12B-	12d	1r	4B-
12c	12e-	.	.
12d	12f	.	.
12c	12e-	.	2.r
12B-	12d	.	.
12A	12c	.	.
12G	12B-	.	.
12A	12c	.	.
12B-	12d	.	.
12A	12c	.	.
12G	12B-	.	.
12F	12A	.	.
=119	=119	=119	=119
4E-	4G	4r	12gg
.	.	.	12aa
.	.	.	12bb-
2.r	2.r	4e-	12aa
.	.	.	12gg
.	.	.	12ff
.	.	4g	12ee-
.	.	.	12ff
.	.	.	12gg
.	.	4b	12ff
.	.	.	12ee-
.	.	.	12dd
=120	=120	=120	=120
12c	12e-	4cc	4cc
12d	12f	.	.
12e-	12g	.	.
12d	12f	2.r	2.r
12c	12e-	.	.
12B-	12d	.	.
12A	12c	.	.
12B-	12d	.	.
12c	12e-	.	.
12B-	12d	.	.
12A	12c	.	.
12G	12B-	.	.
=121	=121	=121	=121
2.F	2.A	12a	12ccc
.	.	12b-	12ddd
.	.	12cc	12eee-
.	.	12b-	12ddd
.	.	12a	12ccc
.	.	12g	12bb-
.	.	12f	12aa
.	.	12g	12bb-
.	.	12a	12ccc
4G	4B-	12g	12bb-
.	.	12f	12aa
.	.	12e	12gg
=122	=122	=122	=122
1A	1c	[1f	12ff
.	.	.	12gg
.	.	.	12ff
.	.	.	12ee-
.	.	.	12dd
.	.	.	12cc
.	.	.	12b-
.	.	.	12a
.	.	.	12g
.	.	.	12f
.	.	.	12g
.	.	.	12e-
=123	=123	=123	=123
8B-	8d	8f]	12d
.	.	.	12f
8r	8r	8r	.
.	.	.	12b-
8d	8a-	8b	12d
.	.	.	12f
8r	8r	8r	.
.	.	.	12b
8e-	8g	8cc	12cc
.	.	.	12g
8r	8r	8r	.
.	.	.	12e-
8B	8g	8dd	12d
.	.	.	12b
8r	8r	8r	.
.	.	.	12dd
=124	=124	=124	=124
8c	8g	8ee-	12ee-
.	.	.	12cc
8r	8r	8r	.
.	.	.	12g
8B-	8g	8ee	12ee
.	.	.	12cc
8r	8r	8r	.
.	.	.	12g
8A	8f	8ff	12f
.	.	.	12cc
8r	8r	8r	.
.	.	.	12ff
8e-	8cc	8aa	12e-
.	.	.	12cc
8r	8r	8r	.
.	.	.	12aa
=125	=125	=125	=125
8d	8b-	8bb-	12d
.	.	.	12b-
8r	8r	8r	.
.	.	.	12bb-
8e-	8ee-	8gg	12gg
.	.	.	12ee-
8r	8r	8r	.
.	.	.	12cc
8f	8dd	8ff	12ff
.	.	.	12dd
8r	8r	8r	.
.	.	.	12b-
8F	8cc	8ee-	12ee-
.	.	.	12cc
8r	8r	8r	.
.	.	.	12a
=126	=126	=126	=126
4B-	12b-	12dd	1bb-
.	12cc	12ee-	.
.	12dd	12ff	.
2.r	12cc	12ee-	.
.	12b-	12dd	.
.	12a	12cc	.
.	12g	12b-	.
.	12a	12cc	.
.	12b-	12dd	.
.	12a	12cc	.
.	12g	12b-	.
.	12f	12a	.
=127	=127	=127	=127
12C	2.e	1g	4bb-
12E	.	.	.
12F	.	.	.
12G	.	.	4bb-
12A	.	.	.
12B	.	.	.
12c	.	.	4bb-
12e	.	.	.
12f	.	.	.
12g	4c	.	4bb-
12f	.	.	.
12e	.	.	.
=128	=128	=128	=128
4f	[1f	[1a-	12aa-
.	.	.	12bb-
.	.	.	12ccc
2.r	.	.	12bb-
.	.	.	12aa-
.	.	.	12gg
.	.	.	12ff
.	.	.	12gg
.	.	.	12aa-
.	.	.	12gg
.	.	.	12ff
.	.	.	12ee-
=129	=129	=129	=129
12BB-	2f]	1a-]	3..dd
12D	.	.	.
12E-	.	.	.
12F	.	.	.
12G	.	.	.
12A	.	.	.
12B-	2B-	.	.
12d	.	.	12ff
12e-	.	.	12gg
12f	.	.	12aa-
12e-	.	.	12gg
12d	.	.	12ff
=130	=130	=130	=130
1e-	[1e-	[1g	12gg
.	.	.	12aa-
.	.	.	12bb-
.	.	.	12aa-
.	.	.	12gg
.	.	.	12ff
.	.	.	12ee-
.	.	.	12ff
.	.	.	12gg
.	.	.	12ff
.	.	.	12ee-
.	.	.	12dd
=131	=131	=131	=131
2.E-	2e-]	1g]	12cc
.	.	.	12ee-
.	.	.	12dd
.	.	.	12cc
.	.	.	12ee-
.	.	.	12ff
.	2c	.	12gg
.	.	.	12ff
.	.	.	12ee-
4E	.	.	12dd
.	.	.	12cc
.	.	.	12b-
=132	=132	=132	=132
[1F	[1c	[1e- [1a	12a
.	.	.	12cc
.	.	.	12b-
.	.	.	12a
.	.	.	12ee-
.	.	.	12dd
.	.	.	12cc
.	.	.	12aa
.	.	.	12gg
.	.	.	12ff
.	.	.	12ccc
.	.	.	12bb-
=133	=133	=133	=133
1F_	1c]	1e-] 1a]	12aa
.	.	.	12eee-
.	.	.	12ccc
.	.	.	12aa
.	.	.	12eee-
.	.	.	12ccc
.	.	.	12aa
.	.	.	12ccc
.	.	.	12aa
.	.	.	12ff
.	.	.	12gg
.	.	.	12ee-
=134	=134	=134	=134
1F_	12d	12d 12b-	12dd
.	12dd	12ff	12bb-
.	12dd	12ff	12bb-
.	12dd	12ff	12bb-
.	12cc	12ee-	12aa
.	12b-	12dd	12gg
.	12a	12cc	12ff
.	12b-	12dd	12gg
.	12b-	12dd	12gg
.	12b-	12dd	12gg
.	12a	12cc	12ff
.	12g	12b-	12ee-
=135	=135	=135	=135
1F_	12f	12a	12dd
.	12g	12b-	12ee-
.	12g	12b-	12ee-
.	12g	12b-	12ee-
.	12f	12a	12dd
.	12e-	12g	12cc
.	12d	4f	12b-
.	12c	.	12a
.	12d	.	12b-
.	12e-	4f	12cc
.	12d	.	12b-
.	12c	.	12a
=136	=136	=136	=136
1F]	12d	12b-	4b-
.	12c	12a	.
.	12d	12b-	.
.	12e-	12cc	2.r
.	12d	12b-	.
.	12c	12a	.
.	12d	12b-	.
.	12c	12a	.
.	12d	12b-	.
.	12e-	12cc	.
.	12d	12b-	.
.	12c	12a	.
=137	=137	=137	=137
12B-	4d	12b-	12ddd
12A	.	12ff	12ccc
12B-	.	12ff	12ddd
12c	2.r	12ff	12eee-
12B-	.	12ff	12ddd
12A	.	12ff	12ccc
12B-	.	12ff	12ddd
12A	.	12ff	12ccc
12B-	.	12ff	12ddd
12c	.	12ff	12eee-
12B-	.	12ff	12ddd
12A	.	12ff	12ccc
=138	=138	=138	=138
12B-	1b-	2ff	12ddd
12c	.	.	12eee-
12d	.	.	12fff
12B-	.	.	12ddd
12c	.	.	12eee-
12d	.	.	12fff
2E-	.	2gg	12gg
.	.	.	12aa
.	.	.	12bb-
.	.	.	12ccc
.	.	.	12ddd
.	.	.	12eee-
=139	=139	=139	=139
4E-	4cc	4a	2ff
4D	4b-	2b-	.
4E-	4g	.	2ccc
4F	8f	4a	.
.	8e-	.	.
=140	=140	=140	=140
1G	2d	1b-	12bb-
.	.	.	12ddd
.	.	.	12ccc
.	.	.	12bb-
.	.	.	12aa
.	.	.	12gg
.	4e	.	12ff
.	.	.	12ee
.	.	.	12gg
.	4g	.	12bb-
.	.	.	12gg
.	.	.	12ee
=141	=141	=141	=141
1A	[1f	1cc	12ff
.	.	.	12gg
.	.	.	12ff
.	.	.	12ee-
.	.	.	12dd
.	.	.	12cc
.	.	.	12b-
.	.	.	12a
.	.	.	12g
.	.	.	12f
.	.	.	12g
.	.	.	12e-
=142	=142	=142	=142
4B-	4f]	2b-	12d
.	.	.	12ff
.	.	.	12ff
4d	4f	.	12ff
.	.	.	12dd
.	.	.	12b-
4e-	4f	8.cc	12a
.	.	.	12f
.	.	.	12ff
.	.	16a	.
4d	4f	4b-	12ff
.	.	.	12dd
.	.	.	12b-
=143	=143	=143	=143
4e-	4f	8.cc	12a
.	.	.	12f
.	.	.	12ff
.	.	16a	.
4d	4f	4b-	12ff
.	.	.	12dd
.	.	.	12b-
4e-	4f	8.cc	12a
.	.	.	12f
.	.	.	12ff
.	.	16a	.
4d	4f	12b-	12ff
.	.	12dd	12dd
.	.	12ff	12b-
=144	=144	=144	=144
4e-	4e-	4gg	4g
4r	4r	4e-	4gg
4r	4r	4r	4r
4e	4e	[4b-	4cc
=145	=145	=145	=145
4f	4f	4b-]	4dd
2f#	2cc	2a	2ee-
4g	4b-	4b-	4dd
=146	=146	=146	=146
4e-	4r	4.g	4.cc
4E-	4g	.	.
.	.	16f	16dd
.	.	16e-	16ee-
4F	4f	4d	4b-
4F	4e-	4c	4a
=147	=147	=147	=147
1r	4e-	12a	4cc
.	.	12f	.
.	.	12ff	.
.	4d	12ff	4dd
.	.	12dd	.
.	.	12b-	.
.	4e-	12a	4cc
.	.	12f	.
.	.	12ff	.
.	4d	12ff	4dd
.	.	12dd	.
.	.	12b-	.
=148	=148	=148	=148
12FF	8f	8ee-	8aa 8cc
12F	.	.	.
.	8r	8r	8r
12F	.	.	.
12F	8f	8dd	8bb- 8b-
12D	.	.	.
.	8r	8r	8r
12BB-	.	.	.
12FF	8f	8ee-	8cc 8aa
12F	.	.	.
.	8r	8r	8r
12F	.	.	.
12F	8f	8dd	8bb- 8b-
12D	.	.	.
.	8r	8r	8r
12BB-	.	.	.
=149	=149	=149	=149
4E-	4g	4cc	4gg 4b-
4r	4r	4r	4r
4F	4c	4a 4e-	4e- 4a
4r	4r	4r	4r
=150	=150	=150	=150
4BB-	4d	4b- 4d	4b- 4d
4BB-	2.r	2.r	2.r
4BB-	.	.	.
4BB-	.	.	.
=151	=151	=151	=151
4BB-	1r	1r	1r
4BB-	.	.	.
4BB-	.	.	.
4BB-	.	.	.
=152	=152	=152	=152
4BB-	1c	1a	[3..ee-
4BB-	.	.	.
4BB-	.	.	.
.	.	.	24ee-]
.	.	.	16ff
.	.	.	16gg
4BB-	.	.	8ff
.	.	.	8ee-
=153	=153	=153	=153
4BB-	4d	4b-	4dd
4BB-	2.r	2.r	2.r
4BB-	.	.	.
4BB-	.	.	.
=154	=154	=154	=154
4BB-	1A	1e-	[3..cc
4BB-	.	.	.
4BB-	.	.	.
.	.	.	24cc]
.	.	.	16dd
.	.	.	16ee-
4BB-	.	.	8dd
.	.	.	8cc
=155	=155	=155	=155
4BB-	4B-	4d	4b-
4BB-	2.r	2.r	2.r
4BB-	.	.	.
4BB-	.	.	.
=156	=156	=156	=156
4BB-	1e	1d-	[3..g
4BB-	.	.	.
4BB-	.	.	.
.	.	.	24g]
.	.	.	16a
.	.	.	16b-
4BB-	.	.	8a
.	.	.	8g
=157	=157	=157	=157
2AA	4f	2c	2f
.	4A	.	.
4GG	4G	4B-	4e-
4FF	4F	4A	4d
=158	=158	=158	=158
4EE-	2E-	4.G	4.c
4EE-	.	.	.
.	.	8c	16d
.	.	.	16e-
4FF	4D	4B-	4B-
4FF	4e-	4A	4c
=159	=159	=159	=159
12BB-	12d	4B-	4B-
12BB-	12b-	.	.
12BB-	12a	.	.
12BB-	12g	2.r	2.r
12BB-	12f	.	.
12BB-	12e-	.	.
12BB-	12d	.	.
12BB-	12c	.	.
12BB-	12B-	.	.
12BB-	12A	.	.
12BB-	12G	.	.
12BB-	12F	.	.
=160	=160	=160	=160
12BB-	1E-	[3..c	1a
12BB-	.	.	.
12BB-	.	.	.
12BB-	.	.	.
12BB-	.	.	.
12BB-	.	.	.
12BB-	.	.	.
12BB-	.	24c]	.
.	.	16d	.
12BB-	.	.	.
.	.	16e-	.
12BB-	.	8d	.
12BB-	.	.	.
.	.	8c	.
12BB-	.	.	.
=161	=161	=161	=161
12BB-	4D	4d	12b-
12BB-	.	.	12bb-
12BB-	.	.	12aa
12BB-	2.r	2.r	12gg
12BB-	.	.	12ff
12BB-	.	.	12ee-
12BB-	.	.	12dd
12BB-	.	.	12cc
12BB-	.	.	12b-
12BB-	.	.	12a
12BB-	.	.	12g
12BB-	.	.	12f
=162	=162	=162	=162
12BB-	[3..c	[3..A	1e-
12BB-	.	.	.
12BB-	.	.	.
12BB-	.	.	.
12BB-	.	.	.
12BB-	.	.	.
12BB-	.	.	.
12BB-	24c]	24A]	.
.	16d	16B-	.
12BB-	.	.	.
.	16e-	16c	.
12BB-	8d	8B-	.
12BB-	.	.	.
.	8c	8A	.
12BB-	.	.	.
=163	=163	=163	=163
4BB-	4B-	4B-	4d
4r	4r	4r	4r
4BB-	4F	4d	4B-
4r	4r	4r	4r
=164	=164	=164	=164
4BB-	4F	4d	4B-
2.r	2.r	2.r	2.r
==	==	==	==
*-	*-	*-	*-
!!!RWG1: This file contains only pitch and duration data.
!!!RWG2: Transposing instruments are not transposed.
!!!RWG3: Spines may have incompatible meters.
!!!RWG4: Durations of rests and tied notes may be interpreted.
!!!RWG: Key is interpreted using the Humdrum key tool.
!!!GTL: 6 Quartetti ("Prussian")
!!!AFT: stage1
!!!END: 1997/04/15
!!!KEY: 3736590082
!!!EMD: Converted from MuseData to Humdrum Dec 16, 2000, by Andreas Kornstaedt using muse2kern.
!!!EMD: Manual editing by Craig Sapp, Nov 2001
